X:0291
M:2/4
L:1/16
Q:1/4=120
K:D
f2d4   cd|e2 A4 Bc|d2cB A2G2   |F2E2F2D2|\
f2d4   cd|e2 A4 e2|fedc edcB   |A4  A4 ||
f2d4   cd|e2 A4 G2|F2ED FED[CE]|D4  D4 :|

